file/sonatrach.svg

<svg clip-rule="evenodd" fill-rule="evenodd" stroke-linejoin="round" stroke-miterlimit="1.41421" viewBox="0 0 560 400" xmlns="http://www.w3.org/2000/svg"><g fill-rule="nonzero" transform="matrix(.347237 0 0 -.347237 298.853 371.457)"><path d="m-443.078 104.992h777.566v777.566h-777.566z" fill="#f5821f"/><path d="m0 0-.782-.004.007-1.974c-.008-.609-3.143-.609-3.133 0l.004 3.916-.725-.017.001-4.508c.004-.854 4.621-.828 4.646 0z" transform="matrix(10.5503 0 0 10.5503 19.193 758.328)"/><path d="m0 0h.878l-.012-4.372h-.868z" transform="matrix(10.5503 0 0 10.5503 -170.311 777.161)"/><path d="m0 0 .009-.716c-2.225.003-3.952-.067-4.543-1.4 1.517-.161 2.944-.638 4.272-1.258.572-.398.895-1.45-.799-1.937l-5.531.021c-.428-.034-1.074.632-1.178 1.075h.645c.173-.349.428-.326.664-.404h5.063c1.073.19.944.633.529.866-1.288.485-2.55.913-4.301 1.213-.463.08-.618.167-.563.408.963 1.913 2.937 2.22 5.733 2.132" transform="matrix(10.5503 0 0 10.5503 -185.029 781.929)"/><path d="m10.668 767.307h8.651v8.303h-8.651z"/><path d="m0 0v-1.441c.143.149.31.259.494.332.187.072.4.108.638.108.528 0 .934-.126 1.218-.38.281-.252.423-.616.423-1.092v-1.891h-.986v1.454c0 .451-.065.757-.195.918s-.356.242-.679.242c-.329 0-.566-.091-.709-.272s-.216-.491-.216-.93v-1.412h-.951v4.364zm-3.158-2.239c-.118.172-.27.3-.452.387-.184.085-.402.129-.654.129-.334 0-.614-.095-.838-.281-.225-.189-.337-.425-.337-.709 0-.28.114-.512.344-.699.231-.185.518-.278.866-.278.266 0 .489.045.666.133.177.089.31.222.397.4h1.051c-.129-.403-.377-.721-.751-.95-.373-.23-.824-.344-1.356-.344-.312 0-.602.043-.87.13s-.509.216-.724.386c-.2.159-.356.346-.469.561s-.171.433-.171.654c0 .232.052.449.155.651.102.202.254.384.454.546.221.182.47.319.748.412.278.095.575.142.893.142.519 0 .969-.115 1.348-.345.382-.228.63-.538.752-.925zm-5.325-2.125v.405c-.118-.164-.283-.286-.497-.364-.214-.077-.489-.115-.824-.115-.626 0-1.148.166-1.567.498s-.629.746-.629 1.24c0 .231.052.452.157.659.104.208.255.392.45.548.211.174.445.302.701.386.256.082.545.124.866.124.308 0 .574-.04.796-.12.222-.079.402-.2.536-.363v.399h.964v-3.297zm-2.508 1.676c0-.278.118-.51.356-.697.237-.187.526-.28.869-.28.309 0 .582.094.818.281.236.188.354.408.354.659 0 .269-.118.499-.356.691-.237.193-.516.29-.834.29-.332 0-.617-.091-.853-.274s-.354-.406-.354-.67zm-1.608.953c-.383-.023-.649-.103-.801-.234-.15-.133-.227-.37-.227-.713v-1.682h-.986v3.297h.924v-.381c.149.149.311.257.489.326.177.068.377.103.601.103zm-4.546-2.629v2.614h-.647v.683h.647v1.067h.986v-1.067h.65v-.683h-.65v-2.614zm-2.581 0v.405c-.118-.164-.284-.286-.497-.364-.215-.077-.49-.115-.824-.115-.626 0-1.148.166-1.567.498s-.631.746-.631 1.24c0 .231.054.452.159.659.105.208.253.392.45.548.211.174.444.302.701.386.256.082.545.124.867.124.307 0 .572-.04.795-.12.221-.079.4-.2.536-.363v.399h.963v-3.297zm-2.509 1.676c0-.278.118-.51.357-.697.235-.187.526-.28.867-.28.309 0 .583.094.82.281.236.188.354.408.354.659 0 .269-.118.499-.357.691-.237.193-.515.29-.833.29-.332 0-.618-.091-.854-.274s-.354-.406-.354-.67zm-4.841 1.621v-.374c.143.149.309.259.495.332.186.072.397.108.637.108.305 0 .571-.046.8-.136.227-.09.415-.224.566-.403.099-.12.168-.257.21-.409.043-.153.064-.377.064-.671v-1.744h-.986v1.46c0 .442-.066.744-.196.908-.131.164-.358.246-.678.246-.329 0-.565-.091-.708-.272s-.215-.491-.215-.93v-1.412h-.953v3.297zm-6.486-1.633c0 .231.056.452.166.66.107.209.266.394.473.556.214.165.454.293.722.382.266.089.543.133.831.133.305 0 .587-.039.846-.119.256-.078.496-.197.71-.355.221-.165.393-.356.512-.573.121-.217.18-.44.18-.667 0-.252-.052-.481-.157-.689-.104-.208-.262-.396-.473-.563-.211-.17-.451-.299-.72-.386s-.563-.13-.878-.13c-.319 0-.61.043-.87.132-.263.087-.5.22-.717.395-.206.172-.362.362-.466.568-.106.207-.159.425-.159.656zm1.017.005c0-.306.108-.548.323-.727.216-.18.509-.268.878-.268.366 0 .656.091.873.274s.327.43.327.739c0 .278-.114.506-.341.685-.227.18-.515.269-.859.269-.353 0-.642-.091-.866-.273-.223-.18-.335-.414-.335-.699zm-3.786-.575v-.046c0-.144.048-.264.142-.354.097-.091.22-.137.37-.137.145 0 .263.034.354.103.09.068.136.155.136.26 0 .097-.033.179-.101.241-.065.062-.185.126-.359.19-.098.034-.241.081-.431.142-.19.059-.312.106-.365.139-.158.101-.272.212-.346.335-.075.123-.113.264-.113.422 0 .278.125.512.376.704s.554.288.91.288c.377 0 .675-.085.896-.255.219-.17.34-.408.36-.714h-.886v.019c0 .105-.035.188-.106.248-.071.061-.169.09-.295.09-.109 0-.202-.029-.274-.088-.074-.059-.11-.133-.11-.221 0-.144.189-.278.569-.402.1-.032.177-.056.232-.075.364-.127.613-.264.747-.412.133-.146.2-.344.2-.594 0-.308-.135-.562-.401-.763s-.604-.301-1.009-.301c-.408 0-.737.105-.987.317-.25.211-.386.499-.411.86z" transform="matrix(10.5503 0 0 10.5503 125.297 267.783)"/><path d="m0 0h4.963c1.825.15.569 2.434-.689 2.065-1.712-.508-3.129-1.127-4.274-2.065zm-1.54 4.147.821.012-.02-3.406c1.991 1.409 4.08 2.083 6.125 1.978 1.033-.055 2.413-2.975-.553-3.462h-7.809c-.445-1.069-1.227-1.801-2.345-2.205l-.014.849c.977.363 1.595 1.206 1.904 2.457l-.01 1.968h.69l.005-1.971h1.203z" transform="matrix(10.5503 0 0 10.5503 -109.826 733.599)"/><path d="m0 0c.885 0 1.605-.33 1.605-.737 0-.401-.72-.731-1.605-.731-.882 0-1.602.33-1.602.731 0 .407.72.737 1.602.737zm10.136.502h-.803v-1.967c0-.614-1.802-.614-1.802-.003v1.97h-.911v-1.97c0-.611-1.86-.611-1.86 0v1.97h-.858v-1.97c-.035-.255-.607-.66-1.382-.626-.019.934-.162 2.596-1.758 2.596-1.603 0-2.883 0-3.097-.864-.156-.852.308-1.717 1.79-1.717.811-.07 1.574-.01 2.305.142-.152-1.062-.745-1.69-1.787-2.017l.004-.848c1.168.42 2.092 1.076 2.371 2.047.571 0 1.163.15 1.566.649h.846c.675-.489 1.263-.46 1.86.027h.818c.108 0 .047-.343 1.186-.32 1.468.025 1.512.884 1.512.931z" transform="matrix(10.5503 0 0 10.5503 56.0239 752.958)"/><path d="m0 0 .011 7.904-36.997.119c-2.51-.119-3.326-.935-3.326-3.385v-12.184c0-1.704.754-2.827 3.833-2.827h27.861c.675 0 .723-1.443 0-1.443h-31.694v-8.18h15.688v-2.183h-15.688l.11-7.875 40.213-.049v7.924h-15.291v2.183h12.741c1.567 0 2.55.817 2.55 2.519v12.469c0 2.415-.821 3.258-3.152 3.258h-28.092c-.8 0-.807 1.481.004 1.481h31.24z" transform="matrix(10.5503 0 0 10.5503 158.298 610.255)"/></g></svg>

<?xml version="1.0" encoding="UTF-8" standalone="no"?>
<!DOCTYPE svg PUBLIC "-//W3C//DTD SVG 1.1//EN" "http://www.w3.org/Graphics/SVG/1.1/DTD/svg11.dtd">
<svg width="100%" height="100%" viewBox="0 0 560 400" version="1.1" xmlns="http://www.w3.org/2000/svg" xmlns:xlink="http://www.w3.org/1999/xlink" xml:space="preserve" xmlns:serif="http://www.serif.com/" style="fill-rule:evenodd;clip-rule:evenodd;stroke-linejoin:round;stroke-miterlimit:1.41421;">
    <g transform="matrix(0.347237,0,0,-0.347237,298.853,371.457)">
        <rect id="path46" x="-443.078" y="104.992" width="777.566" height="777.566" style="fill:rgb(245,130,31);fill-rule:nonzero;"/>
        <g>
            <g id="path50" transform="matrix(10.5503,0,0,10.5503,19.193,758.328)">
                <path d="M0,0L-0.782,-0.004L-0.775,-1.978C-0.783,-2.587 -3.918,-2.587 -3.908,-1.978L-3.904,1.938L-4.629,1.921L-4.628,-2.587C-4.624,-3.441 -0.007,-3.415 0.018,-2.587L0,0" style="fill-rule:nonzero;"/>
            </g>
            <g id="path54" transform="matrix(10.5503,0,0,10.5503,-170.311,777.161)">
                <path d="M0,0L0.878,0L0.866,-4.372L-0.002,-4.372L0,0" style="fill-rule:nonzero;"/>
            </g>
            <g id="path58" transform="matrix(10.5503,0,0,10.5503,-185.029,781.929)">
                <path d="M0,0L0.009,-0.716C-2.216,-0.713 -3.943,-0.783 -4.534,-2.116C-3.017,-2.277 -1.59,-2.754 -0.262,-3.374C0.31,-3.772 0.633,-4.824 -1.061,-5.311L-6.592,-5.29C-7.02,-5.324 -7.666,-4.658 -7.77,-4.215L-7.125,-4.215C-6.952,-4.564 -6.697,-4.541 -6.461,-4.619L-1.398,-4.619C-0.325,-4.429 -0.454,-3.986 -0.869,-3.753C-2.157,-3.268 -3.419,-2.84 -5.17,-2.54C-5.633,-2.46 -5.788,-2.373 -5.733,-2.132C-4.77,-0.219 -2.796,0.088 0,0" style="fill-rule:nonzero;"/>
            </g>
            <rect id="path60" x="10.668" y="767.307" width="8.651" height="8.303" style="fill-rule:nonzero;"/>
            <g id="path64" transform="matrix(10.5503,0,0,10.5503,125.297,267.783)">
                <path d="M0,0L0,-1.441C0.143,-1.292 0.31,-1.182 0.494,-1.109C0.681,-1.037 0.894,-1.001 1.132,-1.001C1.66,-1.001 2.066,-1.127 2.35,-1.381C2.631,-1.633 2.773,-1.997 2.773,-2.473L2.773,-4.364L1.787,-4.364L1.787,-2.91C1.787,-2.459 1.722,-2.153 1.592,-1.992C1.462,-1.831 1.236,-1.75 0.913,-1.75C0.584,-1.75 0.347,-1.841 0.204,-2.022C0.061,-2.203 -0.012,-2.513 -0.012,-2.952L-0.012,-4.364L-0.963,-4.364L-0.963,0L0,0ZM-3.158,-2.239C-3.276,-2.067 -3.428,-1.939 -3.61,-1.852C-3.794,-1.767 -4.012,-1.723 -4.264,-1.723C-4.598,-1.723 -4.878,-1.818 -5.102,-2.004C-5.327,-2.193 -5.439,-2.429 -5.439,-2.713C-5.439,-2.993 -5.325,-3.225 -5.095,-3.412C-4.864,-3.597 -4.577,-3.69 -4.229,-3.69C-3.963,-3.69 -3.74,-3.645 -3.563,-3.557C-3.386,-3.468 -3.253,-3.335 -3.166,-3.157L-2.115,-3.157C-2.244,-3.56 -2.492,-3.878 -2.866,-4.107C-3.239,-4.337 -3.69,-4.451 -4.222,-4.451C-4.534,-4.451 -4.824,-4.408 -5.092,-4.321C-5.36,-4.234 -5.601,-4.105 -5.816,-3.935C-6.016,-3.776 -6.172,-3.589 -6.285,-3.374C-6.398,-3.159 -6.456,-2.941 -6.456,-2.72C-6.456,-2.488 -6.404,-2.271 -6.301,-2.069C-6.199,-1.867 -6.047,-1.685 -5.847,-1.523C-5.626,-1.341 -5.377,-1.204 -5.099,-1.111C-4.821,-1.016 -4.524,-0.969 -4.206,-0.969C-3.687,-0.969 -3.237,-1.084 -2.858,-1.314C-2.476,-1.542 -2.228,-1.852 -2.106,-2.239L-3.158,-2.239ZM-8.483,-4.364L-8.483,-3.959C-8.601,-4.123 -8.766,-4.245 -8.98,-4.323C-9.194,-4.4 -9.469,-4.438 -9.804,-4.438C-10.43,-4.438 -10.952,-4.272 -11.371,-3.94C-11.79,-3.608 -12,-3.194 -12,-2.7C-12,-2.469 -11.948,-2.248 -11.843,-2.041C-11.739,-1.833 -11.588,-1.649 -11.393,-1.493C-11.182,-1.319 -10.948,-1.191 -10.692,-1.107C-10.436,-1.025 -10.147,-0.983 -9.826,-0.983C-9.518,-0.983 -9.252,-1.023 -9.03,-1.103C-8.808,-1.182 -8.628,-1.303 -8.494,-1.466L-8.494,-1.067L-7.53,-1.067L-7.53,-4.364L-8.483,-4.364ZM-10.991,-2.688C-10.991,-2.966 -10.873,-3.198 -10.635,-3.385C-10.398,-3.572 -10.109,-3.665 -9.766,-3.665C-9.457,-3.665 -9.184,-3.571 -8.948,-3.384C-8.712,-3.196 -8.594,-2.976 -8.594,-2.725C-8.594,-2.456 -8.712,-2.226 -8.95,-2.034C-9.187,-1.841 -9.466,-1.744 -9.784,-1.744C-10.116,-1.744 -10.401,-1.835 -10.637,-2.018C-10.873,-2.201 -10.991,-2.424 -10.991,-2.688ZM-12.599,-1.735C-12.982,-1.758 -13.248,-1.838 -13.4,-1.969C-13.55,-2.102 -13.627,-2.339 -13.627,-2.682L-13.627,-4.364L-14.613,-4.364L-14.613,-1.067L-13.689,-1.067L-13.689,-1.448C-13.54,-1.299 -13.378,-1.191 -13.2,-1.122C-13.023,-1.054 -12.823,-1.019 -12.599,-1.019L-12.599,-1.735ZM-17.145,-4.364L-17.145,-1.75L-17.792,-1.75L-17.792,-1.067L-17.145,-1.067L-17.145,0L-16.159,0L-16.159,-1.067L-15.509,-1.067L-15.509,-1.75L-16.159,-1.75L-16.159,-4.364L-17.145,-4.364ZM-19.726,-4.364L-19.726,-3.959C-19.844,-4.123 -20.01,-4.245 -20.223,-4.323C-20.438,-4.4 -20.713,-4.438 -21.047,-4.438C-21.673,-4.438 -22.195,-4.272 -22.614,-3.94C-23.033,-3.608 -23.245,-3.194 -23.245,-2.7C-23.245,-2.469 -23.191,-2.248 -23.086,-2.041C-22.981,-1.833 -22.833,-1.649 -22.636,-1.493C-22.425,-1.319 -22.192,-1.191 -21.935,-1.107C-21.679,-1.025 -21.39,-0.983 -21.068,-0.983C-20.761,-0.983 -20.496,-1.023 -20.273,-1.103C-20.052,-1.182 -19.873,-1.303 -19.737,-1.466L-19.737,-1.067L-18.774,-1.067L-18.774,-4.364L-19.726,-4.364ZM-22.235,-2.688C-22.235,-2.966 -22.117,-3.198 -21.878,-3.385C-21.643,-3.572 -21.352,-3.665 -21.011,-3.665C-20.702,-3.665 -20.428,-3.571 -20.191,-3.384C-19.955,-3.196 -19.837,-2.976 -19.837,-2.725C-19.837,-2.456 -19.955,-2.226 -20.194,-2.034C-20.431,-1.841 -20.709,-1.744 -21.027,-1.744C-21.359,-1.744 -21.645,-1.835 -21.881,-2.018C-22.117,-2.201 -22.235,-2.424 -22.235,-2.688ZM-27.076,-1.067L-27.076,-1.441C-26.933,-1.292 -26.767,-1.182 -26.581,-1.109C-26.395,-1.037 -26.184,-1.001 -25.944,-1.001C-25.639,-1.001 -25.373,-1.047 -25.144,-1.137C-24.917,-1.227 -24.729,-1.361 -24.578,-1.54C-24.479,-1.66 -24.41,-1.797 -24.368,-1.949C-24.325,-2.102 -24.304,-2.326 -24.304,-2.62L-24.304,-4.364L-25.29,-4.364L-25.29,-2.904C-25.29,-2.462 -25.356,-2.16 -25.486,-1.996C-25.617,-1.832 -25.844,-1.75 -26.164,-1.75C-26.493,-1.75 -26.729,-1.841 -26.872,-2.022C-27.015,-2.203 -27.087,-2.513 -27.087,-2.952L-27.087,-4.364L-28.04,-4.364L-28.04,-1.067L-27.076,-1.067ZM-33.562,-2.7C-33.562,-2.469 -33.506,-2.248 -33.396,-2.04C-33.289,-1.831 -33.13,-1.646 -32.923,-1.484C-32.709,-1.319 -32.469,-1.191 -32.201,-1.102C-31.935,-1.013 -31.658,-0.969 -31.37,-0.969C-31.065,-0.969 -30.783,-1.008 -30.524,-1.088C-30.268,-1.166 -30.028,-1.285 -29.814,-1.443C-29.593,-1.608 -29.421,-1.799 -29.302,-2.016C-29.181,-2.233 -29.122,-2.456 -29.122,-2.683C-29.122,-2.935 -29.174,-3.164 -29.279,-3.372C-29.383,-3.58 -29.541,-3.768 -29.752,-3.935C-29.963,-4.105 -30.203,-4.234 -30.472,-4.321C-30.741,-4.408 -31.035,-4.451 -31.35,-4.451C-31.669,-4.451 -31.96,-4.408 -32.22,-4.319C-32.483,-4.232 -32.72,-4.099 -32.937,-3.924C-33.143,-3.752 -33.299,-3.562 -33.403,-3.356C-33.509,-3.149 -33.562,-2.931 -33.562,-2.7ZM-32.545,-2.695C-32.545,-3.001 -32.437,-3.243 -32.222,-3.422C-32.006,-3.602 -31.713,-3.69 -31.344,-3.69C-30.978,-3.69 -30.688,-3.599 -30.471,-3.416C-30.254,-3.233 -30.144,-2.986 -30.144,-2.677C-30.144,-2.399 -30.258,-2.171 -30.485,-1.992C-30.712,-1.812 -31,-1.723 -31.344,-1.723C-31.697,-1.723 -31.986,-1.814 -32.21,-1.996C-32.433,-2.176 -32.545,-2.41 -32.545,-2.695ZM-36.331,-3.27L-36.331,-3.316C-36.331,-3.46 -36.283,-3.58 -36.189,-3.67C-36.092,-3.761 -35.969,-3.807 -35.819,-3.807C-35.674,-3.807 -35.556,-3.773 -35.465,-3.704C-35.375,-3.636 -35.329,-3.549 -35.329,-3.444C-35.329,-3.347 -35.362,-3.265 -35.43,-3.203C-35.495,-3.141 -35.615,-3.077 -35.789,-3.013C-35.887,-2.979 -36.03,-2.932 -36.22,-2.871C-36.41,-2.812 -36.532,-2.765 -36.585,-2.732C-36.743,-2.631 -36.857,-2.52 -36.931,-2.397C-37.006,-2.274 -37.044,-2.133 -37.044,-1.975C-37.044,-1.697 -36.919,-1.463 -36.668,-1.271C-36.417,-1.079 -36.114,-0.983 -35.758,-0.983C-35.381,-0.983 -35.083,-1.068 -34.862,-1.238C-34.643,-1.408 -34.522,-1.646 -34.502,-1.952L-35.388,-1.952L-35.388,-1.933C-35.388,-1.828 -35.423,-1.745 -35.494,-1.685C-35.565,-1.624 -35.663,-1.595 -35.789,-1.595C-35.898,-1.595 -35.991,-1.624 -36.063,-1.683C-36.137,-1.742 -36.173,-1.816 -36.173,-1.904C-36.173,-2.048 -35.984,-2.182 -35.604,-2.306C-35.504,-2.338 -35.427,-2.362 -35.372,-2.381C-35.008,-2.508 -34.759,-2.645 -34.625,-2.793C-34.492,-2.939 -34.425,-3.137 -34.425,-3.387C-34.425,-3.695 -34.56,-3.949 -34.826,-4.15C-35.092,-4.351 -35.43,-4.451 -35.835,-4.451C-36.243,-4.451 -36.572,-4.346 -36.822,-4.134C-37.072,-3.923 -37.208,-3.635 -37.233,-3.274L-36.331,-3.27" style="fill-rule:nonzero;"/>
            </g>
            <g id="path68" transform="matrix(10.5503,0,0,10.5503,-109.826,733.599)">
                <path d="M0,0L4.963,0C6.788,0.15 5.532,2.434 4.274,2.065C2.562,1.557 1.145,0.938 0,0ZM-1.54,4.147L-0.719,4.159L-0.739,0.753C1.252,2.162 3.341,2.836 5.386,2.731C6.419,2.676 7.799,-0.244 4.833,-0.731L-2.976,-0.731C-3.421,-1.8 -4.203,-2.532 -5.321,-2.936L-5.335,-2.087C-4.358,-1.724 -3.74,-0.881 -3.431,0.37L-3.441,2.338L-2.751,2.338L-2.746,0.367L-1.543,0.367L-1.54,4.147" style="fill-rule:nonzero;"/>
            </g>
            <g id="path72" transform="matrix(10.5503,0,0,10.5503,56.0239,752.958)">
                <path d="M0,0C0.885,0 1.605,-0.33 1.605,-0.737C1.605,-1.138 0.885,-1.468 0,-1.468C-0.882,-1.468 -1.602,-1.138 -1.602,-0.737C-1.602,-0.33 -0.882,0 0,0ZM10.136,0.502L9.333,0.502L9.333,-1.465C9.333,-2.079 7.531,-2.079 7.531,-1.468L7.531,0.502L6.62,0.502L6.62,-1.468C6.62,-2.079 4.76,-2.079 4.76,-1.468L4.76,0.502L3.902,0.502L3.902,-1.468C3.867,-1.723 3.295,-2.128 2.52,-2.094C2.501,-1.16 2.358,0.502 0.762,0.502C-0.841,0.502 -2.121,0.502 -2.335,-0.362C-2.491,-1.214 -2.027,-2.079 -0.545,-2.079C0.266,-2.149 1.029,-2.089 1.76,-1.937C1.608,-2.999 1.015,-3.627 -0.027,-3.954L-0.023,-4.802C1.145,-4.382 2.069,-3.726 2.348,-2.755C2.919,-2.755 3.511,-2.605 3.914,-2.106L4.76,-2.106C5.435,-2.595 6.023,-2.566 6.62,-2.079L7.438,-2.079C7.546,-2.079 7.485,-2.422 8.624,-2.399C10.092,-2.374 10.136,-1.515 10.136,-1.468L10.136,0.502" style="fill-rule:nonzero;"/>
            </g>
            <g id="path76" transform="matrix(10.5503,0,0,10.5503,158.298,610.255)">
                <path d="M0,0L0.011,7.904L-36.986,8.023C-39.496,7.904 -40.312,7.088 -40.312,4.638L-40.312,-7.546C-40.312,-9.25 -39.558,-10.373 -36.479,-10.373L-8.618,-10.373C-7.943,-10.373 -7.895,-11.816 -8.618,-11.816L-40.312,-11.816L-40.312,-19.996L-24.624,-19.996L-24.624,-22.179L-40.312,-22.179L-40.202,-30.054L0.011,-30.103L0.011,-22.179L-15.28,-22.179L-15.28,-19.996L-2.539,-19.996C-0.972,-19.996 0.011,-19.179 0.011,-17.477L0.011,-5.008C0.011,-2.593 -0.81,-1.75 -3.141,-1.75L-31.233,-1.75C-32.033,-1.75 -32.04,-0.269 -31.229,-0.269L0.011,-0.269L0,0" style="fill-rule:nonzero;"/>
            </g>
        </g>
    </g>
</svg>
